X: 11942
T: En Attendant
R: jig
M: 6/8
K: Aminor
|:ede c2B|dcB cBA|eee g2f|f2e e3|
ede c2B|dcB cBA|ABc B2B|B2A A3:|
|:aea dad|cdc B3|Bcd c2B|Bcd e3|
aea dad|cdc B3|Bcd c2B|B2A A3:|

